!!!!SEGMENT: pl-cz--iii-564--001-003_raszek-waclaw--missa-pastoralis-d-credo.krn
!!!cenid: 18xx:987
!!!COM: Raszek, Wacław
!!!COM-rismID:
!!!CDT: <1848->1848
!!!CNT:
!!!OPR: Missa Pastoralis D
!!!OTL: Credo
!!!OMV: 003
!!!PDT:
!!!AGN: Sacred; Mass
!!!SMS-siglum: PL-CZ
!!!SMS-shelfmark: III-564
!!!SMS-shelfwork: 001-003 M
!!!SMS-variant:
!!!SMS-altvar:
!!!NIFC-rismSourceID: 300001047
!!!NIFC-islandoraID: pl-cz:39183
!!!URL-pdf-islandora: https://repozytorium.nifc.pl/islandora/object/pl-cz%3A39183/datastream/PDF/view
!!!URL-scan:
!!!ONB-nifc: UWAGA: części Mszy: Kyrie, Gloria, Credo, Et incarnatus, Et resurrexit, Sanctus, Benedictus, Agnus Dei, Dona nobis
!!!AIN: 1 alto 1 bass 2 clars 2 cor 2 flt 1 organ 1 soprn 2 violn
!!!key: D
**kern	**fba	**dynam	**kern	**dynam	**kern	**dynam	**kern	**text	**kern	**text	**kern	**text	**dynam	**kern	**dynam	**kern	**dynam	**kern	**kern	**dynam	**kern	**dynam	**kern
*part12	*part12	*part12	*part11	*part11	*part10	*part10	*part9	*part9	*part8	*part8	*part7	*part7	*part7	*part6	*part6	*part5	*part5	*part4	*part3	*part3	*part2	*part2	*part1
*staff12	*	*	*staff11	*	*staff10	*	*staff9	*staff9	*staff8	*staff8	*staff7	*staff7	*	*staff6	*	*staff5	*	*staff4	*staff3	*	*staff2	*	*staff1
*I"Organo.	*	*	*I"Violino 2do.	*	*I"Violino Primo.	*	*I"Baſso.	*	*I"Alto.	*	*I"Canto.	*	*	*I"Cornu 2.do	*	*I"Cornu 1.mo	*	*I"Clarinetto vel Oboe 2do	*I"Clarinetto vel Oboe 1mo	*	*I"Flauto 2.do	*	*I"Flauto 1.mo
*I'org	*	*	*I'vl II	*	*I'vl I	*	*I'B	*	*I'A	*	*I'C	*	*	*I'cor II	*	*I'cor I	*	*I'cl vel ob II	*I'cl vel ob I	*	*I'fl II	*	*I'fl I
*ICklav	*	*	*ICstr	*	*ICstr	*	*ICvox	*	*ICvox	*	*ICvox	*	*	*ICbras	*	*ICbras	*	*ICww	*ICww	*	*ICww	*	*ICww
*Iorgan	*	*	*Ivioln	*	*Ivioln	*	*Ibass	*	*Ialto	*	*Isoprn	*	*	*Icor	*	*Icor	*	*Iclars	*Iclars	*	*Iflt	*	*Iflt
*clefF4	*	*	*clefG2	*	*clefG2	*	*clefF4	*	*clefC3	*	*clefC1	*	*	*clefG2	*	*clefG2	*	*clefG2	*clefG2	*	*clefG2	*	*clefG2
*D:	*	*	*D:	*	*D:	*	*D:	*	*D:	*	*D:	*	*	*D:	*	*D:	*	*D:	*D:	*	*D:	*	*D:
*	*	*	*	*	*	*	*	*	*	*	*	*	*	*ITrd6c10	*	*ITrd6c10	*	*	*	*	*	*	*
*k[f#c#]	*	*	*k[f#c#]	*	*k[f#c#]	*	*k[f#c#]	*	*k[c#f#]	*	*k[f#c#]	*	*	*k[f#c#]	*	*k[f#c#]	*	*k[f#c#]	*k[f#c#]	*	*k[f#c#]	*	*k[f#c#]
*M3/4	*	*	*M3/4	*	*M3/4	*	*M3/4	*	*M3/4	*	*M3/4	*	*	*M3/4	*	*M3/4	*	*M3/4	*M3/4	*	*M3/4	*	*M3/4
*	*	*	*	*	*	*	*	*	*	*	*	*	*	*	*	*	*	*	*	*	*	*	*8va
=1	=1	=1	=1	=1	=1	=1	=1	=1	=1	=1	=1	=1	=1	=1	=1	=1	=1	=1	=1	=1	=1	=1	=1
!LO:TX:t=P:all\right:problem	!	!	!	!	!	!LO:TX:t=P:all\right:problem	!	!LO:TX:t=P:all\right:problem	!	!	!	!	!	!	!	!	!	!	!	!	!	!	!
!LO:TX:a:t=Tutti	!	!	!	!	!LO:TX:t=P:all\right:problem	!	!LO:TX:a:t=T.	!	!LO:TX:t=P:problem=kolejność znaków c# f#	!	!LO:TX:t=P:all\right:problem	!	!	!	!	!LO:TX:t=P:all\right!:problem	!	!LO:TX:t=P:all\right:problem	!	!LO:TX:t=P:all\right:problem	!	!LO:TX:t=P:all\right:problem	!
!LO:TX:a:B:t=mod&colon;	!	!	!LO:TX:a:B:t=allo moder.	!LO:DY:a	!LO:TX:a:B:t=allo mod&colon;	!LO:DY:a	!LO:TX:a:B:t=Mod.	!	!LO:TX:t=P:problem=brak oznaczenia tempa	!	!LO:TX:t=P:problem=brak oznaczenia tempa	!	!	!LO:TX:a:B:t=Mod&colon;	!LO:DY:a	!LO:TX:a:B:t=Mod.	!LO:DY:a	!LO:TX:a:B:t=allo	!LO:TX:a:B:t=mod&colon;	!	!LO:TX:a:B:t=Mod.	!LO:DY:a	!LO:TX:a:B:t=allo mod&colon;
!	!	!	!	!LO:DY:t=ffor&colon;	!	!LO:DY:t=ffor&colon;	!	!	!	!	!	!	!	!	!	!	!	!	!	!	!	!	!
!	!	!	!	!	!	!	!	!	!	!	!	!	!	!	!LO:DY:t=ff.	!	!LO:DY:t=ff.	!	!	!	!	!LO:DY:t=ff.	!
4D\	.	.	4f#/ 4a	ff	8dd\L	ff	4D\	Cre-	4f#\	Cre-	4dd\	Cre-	.	4F#/	ff	4d\	ff	4f#/	4dd\	.	4ff#\	ff	4ddd\
.	.	.	.	.	8cc#\J	.	.	.	.	.	.	.	.	.	.	.	.	.	.	.	.	.	.
4D\	.	.	4f#/ 4a	.	4dd\	.	4D\	-do	4f#\	-do	4dd\	-do	.	4F#/	.	4d\	.	4f#/	4dd\	.	4ff#\	.	4ddd\
4C#/	-	.	4e/ 4a	.	4ee\	.	4C#/	in	4e\	in	4ee\	in	.	4A/	.	4e\	.	4a/	4ee\	.	4ee\	.	4eee\
=2	=2	=2	=2	=2	=2	=2	=2	=2	=2	=2	=2	=2	=2	=2	=2	=2	=2	=2	=2	=2	=2	=2	=2
!	!	!	!	!	!	!	!	!	!	!	!	!	!	!LO:TX:t=P:all\right:problem	!	!	!	!	!	!	!	!	!
4D\	.	.	4f#/ 4a	.	2ff#\	.	2D/	U-	2f#\	U-	2ff#\	U-	.	2d\	.	2f#\	.	2a/	2ff#\	.	2ff#\	.	2fff#\
4d\	.	.	4f#/ 4a	.	.	.	.	.	.	.	.	.	.	.	.	.	.	.	.	.	.	.	.
4c#\	3	.	4e/ 4a	.	4ee\	.	4C#/	-num	4e\	-num	4ee\	-num	.	4A/	.	4e\	.	4a/	4ee\	.	4ee\	.	4eee\
=3	=3	=3	=3	=3	=3	=3	=3	=3	=3	=3	=3	=3	=3	=3	=3	=3	=3	=3	=3	=3	=3	=3	=3
8d\L	.	.	4f#/ 4a	.	8ff#\L	.	(4D\	De-	4f#\	De-	8ff#\L	De-	.	4d\	.	4f#\	.	4a/	4ff#\	.	4ff#\	.	8fff#\L
8B\J	.	.	.	.	8dd\J	.	.	.	.	.	8dd\J	.	.	.	.	.	.	.	.	.	.	.	8ddd\J
4G\	-	.	4g/	.	4ee\	.	4G\	.	4g\	.	4ee\	.	.	4r	.	4e\	.	4g/	4ee\	.	4gg\	.	4eee\
4A\	2	.	4e/	.	8ee\L	.	4A\)	.	4e\	.	8ee\L	.	.	4A/	.	4e\	.	4g/	4ee\	.	4ee\	.	8eee\L
.	.	.	.	.	8cc#\J	.	.	.	.	.	8cc#\J	.	.	.	.	.	.	.	.	.	.	.	8ccc#\J
=4	=4	=4	=4	=4	=4	=4	=4	=4	=4	=4	=4	=4	=4	=4	=4	=4	=4	=4	=4	=4	=4	=4	=4
4D/	.	.	4f#/	.	2.dd\	.	2.D\	-um	2.f#\	-um	2.dd\	-um	.	4F#/	.	4d\	.	2.f#/	2.dd\	.	4ff#\	.	4ddd\
8AA/L	.	.	4r	.	.	.	.	.	.	.	.	.	.	8A/L	.	8a\L	.	.	.	.	8aa\L	.	8aa/L
8FF#/J	.	.	.	.	.	.	.	.	.	.	.	.	.	8F#/J	.	8f#\J	.	.	.	.	8ff#\J	.	8ff#/J
4DD/	.	.	4r	.	.	.	.	.	.	.	.	.	.	4D/	.	4d\	.	.	.	.	4dd\	.	4dd/
=5	=5	=5	=5	=5	=5	=5	=5	=5	=5	=5	=5	=5	=5	=5	=5	=5	=5	=5	=5	=5	=5	=5	=5
4D\	.	.	4f#/ 4a	.	8dd\L	.	4D/	Pa-	4f#\	Pa-	4dd\	Pa-	.	4F#/	.	4d\	.	4f#/	4dd\	.	4ff#\	.	4ddd\
.	.	.	.	.	8cc#\J	.	.	.	.	.	.	.	.	.	.	.	.	.	.	.	.	.	.
4D\	3	.	4f#/ 4a	.	4dd\	.	4D/	-trem	4f#\	-trem	4dd\	-trem	.	4F#/	.	4d\	.	4f#/	4dd\	.	4ff#\	.	4ddd\
4C#\	.	.	4e/ 4a	.	4ee\	.	4C#/	om-	4e\	om-	4ee\	om-	.	4A/	.	4e\	.	4a/	4ee\	.	4ee\	.	4eee\
=6	=6	=6	=6	=6	=6	=6	=6	=6	=6	=6	=6	=6	=6	=6	=6	=6	=6	=6	=6	=6	=6	=6	=6
4D\	.	.	4f#/ 4a	.	2ff#\	.	2D/	-ni-	2f#\	-ni-	2ff#\	-ni-	.	2d\	.	2f#\	.	2a/	2ff#\	.	2ff#\	.	2fff#\
4d\	.	.	4f#/ 4a	.	.	.	.	.	.	.	.	.	.	.	.	.	.	.	.	.	.	.	.
4c#\	3	.	4e/ 4a	.	4ee\	.	4C#/	-po-	4e\	-po-	4ee\	-po-	.	4A/	.	4e\	.	4a/	4ee\	.	4ee\	.	4eee\
=7	=7	=7	=7	=7	=7	=7	=7	=7	=7	=7	=7	=7	=7	=7	=7	=7	=7	=7	=7	=7	=7	=7	=7
4d\	.	.	4f#/ 4a	.	8ff#\L	.	4D\	-ten-	(4f#\	-ten-	8ff#\L	-ten-	.	4d\	.	4f#\	.	4a/	4ff#\	.	4ff#\	.	8fff#\L
.	.	.	.	.	8dd\J	.	.	.	.	.	8dd\J	.	.	.	.	.	.	.	.	.	.	.	8ddd\J
4G\	-	.	4g/	.	4ee\	.	4G\	.	4g\)	.	4ee\	.	.	4r	.	4e\	.	4g/	4ee\	.	4gg\	.	4eee\
4A\	2	.	4e/	.	8ee\L	.	4A\	.	4e\	.	8ee\L	.	.	4A/	.	4e\	.	4g/	4ee\	.	4ee\	.	8eee\L
.	.	.	.	.	8cc#\J	.	.	.	.	.	8cc#\J	.	.	.	.	.	.	.	.	.	.	.	8ccc#\J
=8	=8	=8	=8	=8	=8	=8	=8	=8	=8	=8	=8	=8	=8	=8	=8	=8	=8	=8	=8	=8	=8	=8	=8
4D/	.	.	2.f#/ 2.a	.	2.dd\	.	2.D\	-tem	2.f#\	-tem	2.dd\	-tem	.	2F#/	.	2d\	.	2.f#/	2.dd\	.	2.ff#\	.	2.ddd\
8AA/L	.	.	.	.	.	.	.	.	.	.	.	.	.	.	.	.	.	.	.	.	.	.	.
8FF#/J	.	.	.	.	.	.	.	.	.	.	.	.	.	.	.	.	.	.	.	.	.	.	.
4DD/	.	.	.	.	.	.	.	.	.	.	.	.	.	4r	.	4r	.	.	.	.	.	.	.
=9	=9	=9	=9	=9	=9	=9	=9	=9	=9	=9	=9	=9	=9	=9	=9	=9	=9	=9	=9	=9	=9	=9	=9
2.D\	.	.	8f#/L	.	8ff#\L	.	2.D\	fa-	2.f#\	fa-	2.a\	fac-	.	2.d\	.	2.f#\	.	2.a/	2.ff#\	.	2.ff#\	.	2.ddd\
.	.	.	8g#X/	.	8gg#X\	.	.	.	.	.	.	.	.	.	.	.	.	.	.	.	.	.	.
.	.	.	8a/	.	8aa\	.	.	.	.	.	.	.	.	.	.	.	.	.	.	.	.	.	.
.	.	.	8g#/J	.	8gg#\J	.	.	.	.	.	.	.	.	.	.	.	.	.	.	.	.	.	.
.	.	.	4a/	.	4aa\	.	.	.	.	.	.	.	.	.	.	.	.	.	.	.	.	.	.
!	!	!	!	!	!	!	!	!	!	!	!	!	!	!	!	!	!	!	!LO:LB:g=original	!	!	!	!
=10	=10	=10	=10	=10	=10	=10	=10	=10	=10	=10	=10	=10	=10	=10	=10	=10	=10	=10	=10	=10	=10	=10	=10
!	!	!	!	!	!	!	!	!	!	!	!	!	!	!	!	!	!	!	!LO:TX:t=P:problem=takty nr 10-11 nieczytelne	!	!	!	!
2.AA/ 2.A	.	.	8f#/L	.	8ff#\L	.	2A\	-cto-	2a\	-cto-	2a\	-to-	.	2A/	.	2e\	.	2.a/	2.ryy	.	2.aa\	.	8fff#\L
.	.	.	8d/	.	8dd\	.	.	.	.	.	.	.	.	.	.	.	.	.	.	.	.	.	8ddd\
.	.	.	8e/	.	8ee\	.	.	.	.	.	.	.	.	.	.	.	.	.	.	.	.	.	8eee\
.	.	.	8c#/J	.	8cc#\J	.	.	.	.	.	.	.	.	.	.	.	.	.	.	.	.	.	8ccc#\J
.	.	.	4A/	.	4a/	.	4A\	-rem	4a\	-rem	4a\	-rem	.	4A/	.	4e\	.	.	.	.	.	.	4aa/
!	!	!	!	!	!LO:LB:g=original	!	!	!	!	!	!	!	!	!	!	!	!	!	!	!	!	!	!LO:LB:g=original
=11	=11	=11	=11	=11	=11	=11	=11	=11	=11	=11	=11	=11	=11	=11	=11	=11	=11	=11	=11	=11	=11	=11	=11
2.DD/ 2.D	.	.	8f#/L	.	8ff#\L	.	4D\	Cae-	4f#\	Cae-	4a\	Cae-	.	2.d\	.	2.f#\	.	2.a/	2.ryy	.	2.ff#\	.	2.ddd\
!	!	!	!LO:SIC:s=8g#	!	!	!	!	!	!	!	!	!	!	!	!	!	!	!	!	!	!	!	!
.	.	.	8g/	.	8gg#X\	.	.	.	.	.	.	.	.	.	.	.	.	.	.	.	.	.	.
.	.	.	8a/	.	8aa\	.	4D\	-li	4f#\	-li	4a\	-li	.	.	.	.	.	.	.	.	.	.	.
!	!	!	!LO:SIC:s=8g#	!	!	!	!	!	!	!	!	!	!	!	!	!	!	!	!	!	!	!	!
.	.	.	8g/J	.	8gg#\J	.	.	.	.	.	.	.	.	.	.	.	.	.	.	.	.	.	.
.	.	.	4a/	.	4aa\	.	4D\	et	4f#\	et	4a\	et	.	.	.	.	.	.	.	.	.	.	.
!	!	!	!LO:LB:g=original	!	!	!	!	!	!	!	!LO:LB:g=original	!	!	!	!	!	!	!	!	!	!	!	!
!	!	!	!	!	!	!	!	!	!	!	!	!	!	!	!	!	!	!	!	!	!LO:LB:g=original	!	!
!LO:LB:g=original	!	!	!	!	!	!	!	!	!	!	!	!	!	!	!	!LO:LB:g=original	!	!	!	!	!	!	!
=12	=12	=12	=12	=12	=12	=12	=12	=12	=12	=12	=12	=12	=12	=12	=12	=12	=12	=12	=12	=12	=12	=12	=12
2.AA/ 2.A	.	.	8f#/L	.	8ff#\L	.	2A\	ter-	2a\	ter-	2a\	ter-	.	2A/	.	2e\	.	2.a/	2.aa\	.	2.aa\	.	8fff#\L
.	.	.	8d/	.	8dd\	.	.	.	.	.	.	.	.	.	.	.	.	.	.	.	.	.	8ddd\
.	.	.	8e/	.	8ee\	.	.	.	.	.	.	.	.	.	.	.	.	.	.	.	.	.	8eee\
.	.	.	8c#/J	.	8cc#\J	.	.	.	.	.	.	.	.	.	.	.	.	.	.	.	.	.	8ccc#\J
!	!	!	!	!	!	!	!	!	!	!	!	!	!	!LO:LB:g=original	!	!	!	!	!	!	!	!	!
.	.	.	4A/	.	4a/	.	4A\	-rae	4a\	-rae	4a\	-rae	.	4A/	.	4e\	.	.	.	.	.	.	4aa/
!	!	!	!	!	!	!	!LO:LB:g=original	!	!LO:LB:g=original	!	!	!	!	!	!	!	!	!	!	!	!	!	!
=13	=13	=13	=13	=13	=13	=13	=13	=13	=13	=13	=13	=13	=13	=13	=13	=13	=13	=13	=13	=13	=13	=13	=13
*	*	*	*^	*	*	*	*	*	*	*	*	*	*	*	*	*	*	*	*	*	*	*	*
!	!	!	!	!	!	!	!	!	!	!	!	!	!	!	!	!	!	!	!LO:TX:t=P:all\right:problem	!	!	!	!	!
4AA\ 4A	7	.	4a/	4e\	.	4ggn\	.	2A\	Vi-	2a\	Vi-	4gg\	Vi-	.	4A/	.	4e\	.	2.ee\	2.gg\	.	4ee\	.	2.eee\
4AA\ 4A	.	.	4a/	4e\	.	4ee\	.	.	.	.	.	4ee\	.	.	4A/	.	4e\	.	.	.	.	4ee\	.	.
4AA\ 4A	.	.	4a/	4e\	.	8cc#\L	.	4A\	-ſi-	4a\	-ſi-	8cc#\L	-ſi-	.	4A/	.	4e\	.	.	.	.	4ee\	.	.
.	.	.	.	.	.	8a\J	.	.	.	.	.	8a\J	.	.	.	.	.	.	.	.	.	.	.	.
*	*	*	*v	*v	*	*	*	*	*	*	*	*	*	*	*	*	*	*	*	*	*	*	*	*
=14	=14	=14	=14	=14	=14	=14	=14	=14	=14	=14	=14	=14	=14	=14	=14	=14	=14	=14	=14	=14	=14	=14	=14
4D\	8_	.	4f#/ 4a	.	4.dd\	.	4.D\	-bi-	4.a\	-bi-	4.dd\	-bi-	.	2d\	.	2f#\	.	2.dd\	2.ff#\	.	4ff#\	.	2.fff#\
4D\	.	.	4f#/ 4a	.	.	.	.	.	.	.	.	.	.	.	.	.	.	.	.	.	4ff#\	.	.
.	.	.	.	.	8ee\	.	8D\	-li-	8a\	-li-	8ee\	-li-	.	.	.	.	.	.	.	.	.	.	.
4D\	.	.	4f#/ 4a	.	4ff#\	.	4D\	-um	4a\	-um	4ff#\	-um	.	4d\	.	4f#\	.	.	.	.	4ff#\	.	.
=15	=15	=15	=15	=15	=15	=15	=15	=15	=15	=15	=15	=15	=15	=15	=15	=15	=15	=15	=15	=15	=15	=15	=15
*	*	*	*^	*	*	*	*	*	*	*	*	*	*	*	*	*	*	*	*	*	*	*	*
4A\	7_	.	4a/	2.e\	.	8gg\L	.	4A\	Om-	4a\	Om-	4gg\	Om-	.	4A/	.	4e\	.	2.ee\	2.gg\	.	2.ccc#\	.	2.eee\
.	.	.	.	.	.	8bb\J	.	.	.	.	.	.	.	.	.	.	.	.	.	.	.	.	.	.
4A\	.	.	4a/	.	.	4ee\	.	4A\	-ni-	4a\	-ni-	4ee\	-ni-	.	4A/	.	4e\	.	.	.	.	.	.	.
4A\	.	.	4a/	.	.	8cc#\L	.	4A\	-um	4a\	-um	8cc#\L	-um	.	4A/	.	4e\	.	.	.	.	.	.	.
.	.	.	.	.	.	8a\J	.	.	.	.	.	8a\J	.	.	.	.	.	.	.	.	.	.	.	.
=16	=16	=16	=16	=16	=16	=16	=16	=16	=16	=16	=16	=16	=16	=16	=16	=16	=16	=16	=16	=16	=16	=16	=16	=16
4D\	.	.	4a/	2.f#\	.	4.dd\	.	2D\	et	2a\	et	4.dd\	et	.	2.d\	.	2f#\	.	2.dd\	2.ff#\	.	2.ddd\	.	2.ddd\
4D\	.	.	4a/	.	.	.	.	.	.	.	.	.	.	.	.	.	.	.	.	.	.	.	.	.
.	.	.	.	.	.	8ee\	.	.	.	.	.	8ee\	.	.	.	.	.	.	.	.	.	.	.	.
4D\	.	.	4a/	.	.	4ff#\	.	4D\	in	4a\	in	4ff#\	in	.	.	.	4f#\	.	.	.	.	.	.	.
!	!	!	!	!	!	!	!	!	!	!	!	!	!	!	!	!	!	!	!LO:LB:g=original	!	!	!	!	!
=17	=17	=17	=17	=17	=17	=17	=17	=17	=17	=17	=17	=17	=17	=17	=17	=17	=17	=17	=17	=17	=17	=17	=17	=17
4A\	7_	.	4a/	2.e\	.	8gg\L	.	8A\	Vi-	8a\	Vi-	8gg\	Vi-	.	2A/	.	2e\	.	2ee\	2gg\	.	4ccc#\	.	2.eee\
.	.	.	.	.	.	8ee\J	.	8A\	-ſi-	8a\	-ſi-	8ee\	-ſi-	.	.	.	.	.	.	.	.	.	.	.
4A\	.	.	4a/	.	.	4b\	.	4A\	-bi-	4b\	-bi-	4b\	-bi-	.	.	.	.	.	.	.	.	4ccc#\	.	.
4A\	.	.	4a/	.	.	4cc#\	.	4A\	-li-	4a\	-li-	4cc#\	-li-	.	4A/	.	4e\	.	4ee\	4gg\	.	4ccc#\	.	.
=18	=18	=18	=18	=18	=18	=18	=18	=18	=18	=18	=18	=18	=18	=18	=18	=18	=18	=18	=18	=18	=18	=18	=18	=18
4d\	.	.	4a/	2.f#\	.	2.dd\	.	2.D\	-um	2.a\	-um	2.dd\	-um	.	4d\	.	4f#\	.	2.dd\	2.ff#\	.	2ddd\	.	2.ddd\
8A\L	.	.	4a/	.	.	.	.	.	.	.	.	.	.	.	8A/L	.	8a\L	.	.	.	.	.	.	.
8F#\J	.	.	.	.	.	.	.	.	.	.	.	.	.	.	8F#/J	.	8f#\J	.	.	.	.	.	.	.
4D\	.	.	4a/	.	.	.	.	.	.	.	.	.	.	.	4D/	.	4d\	.	.	.	.	4r	.	.
*	*	*	*v	*v	*	*	*	*	*	*	*	*	*	*	*	*	*	*	*	*	*	*	*	*
=19	=19	=19	=19	=19	=19	=19	=19	=19	=19	=19	=19	=19	=19	=19	=19	=19	=19	=19	=19	=19	=19	=19	=19
2.DD/ 2.D	.	.	8d/L	.	8dd\L	.	2D\	et	2a\	et	2a\	et	.	2.f#\	.	2.a\	.	2.dd\	2.ff#\	.	2.aa\	.	2.aa\
.	.	.	8f#/	.	8ff#\	.	.	.	.	.	.	.	.	.	.	.	.	.	.	.	.	.	.
.	.	.	8a/	.	8aa\	.	.	.	.	.	.	.	.	.	.	.	.	.	.	.	.	.	.
.	.	.	8g#X/	.	8gg#X\	.	.	.	.	.	.	.	.	.	.	.	.	.	.	.	.	.	.
.	.	.	8e/	.	8ee\	.	4D\	in	4a\	in	4a\	in	.	.	.	.	.	.	.	.	.	.	.
.	.	.	8g#/J	.	8gg#\J	.	.	.	.	.	.	.	.	.	.	.	.	.	.	.	.	.	.
=20	=20	=20	=20	=20	=20	=20	=20	=20	=20	=20	=20	=20	=20	=20	=20	=20	=20	=20	=20	=20	=20	=20	=20
2.D/	.	.	8a/L	.	8aa\L	.	2D\	U-	2f#\	U-	2a\	U-	.	2.f#\	.	2.a\	.	2.a/	2.ff#\	.	2.aa\	.	2.aa\
!	!	!	!LO:SIC:s=8g#	!	!LO:SIC:s=8gg#	!	!	!	!	!	!	!	!	!	!	!	!	!	!	!	!	!	!
.	.	.	8g/	.	8gg\	.	.	.	.	.	.	.	.	.	.	.	.	.	.	.	.	.	.
.	.	.	8a/	.	8aa\	.	.	.	.	.	.	.	.	.	.	.	.	.	.	.	.	.	.
.	.	.	8b/	.	8bb\	.	.	.	.	.	.	.	.	.	.	.	.	.	.	.	.	.	.
.	.	.	8a/	.	8aa\	.	4D\	-num	4f#\	-num	4a\	-num	.	.	.	.	.	.	.	.	.	.	.
.	.	.	8gn/J	.	8ggn\J	.	.	.	.	.	.	.	.	.	.	.	.	.	.	.	.	.	.
=21	=21	=21	=21	=21	=21	=21	=21	=21	=21	=21	=21	=21	=21	=21	=21	=21	=21	=21	=21	=21	=21	=21	=21
2.D/	.	.	8f#/L	.	8ff#\L	.	2D\	Do-	2f#\	Do-	2a\	Do-	.	2.d\	.	2.f#\	.	2.a/	2.ff#\	.	2.ff#\	.	2.aa\
.	.	.	8e/	.	8ee\	.	.	.	.	.	.	.	.	.	.	.	.	.	.	.	.	.	.
.	.	.	8g/	.	8gg\	.	.	.	.	.	.	.	.	.	.	.	.	.	.	.	.	.	.
.	.	.	8f#/	.	8ff#\	.	.	.	.	.	.	.	.	.	.	.	.	.	.	.	.	.	.
.	.	.	8e/	.	8ee\	.	4D\	-mi-	4f#\	-mi-	4a\	-mi-	.	.	.	.	.	.	.	.	.	.	.
.	.	.	8d/J	.	8dd\J	.	.	.	.	.	.	.	.	.	.	.	.	.	.	.	.	.	.
=22	=22	=22	=22	=22	=22	=22	=22	=22	=22	=22	=22	=22	=22	=22	=22	=22	=22	=22	=22	=22	=22	=22	=22
2.AA/ 2.A	.	.	8c#/L	.	8cc#\L	.	2.A\	-num	2.e\	-num	2.a\	-num	.	2.A/	.	2.e\	.	2.cc#\	2.ee\	.	2.ee\	.	8ccc#\L
.	.	.	8d/	.	8dd\	.	.	.	.	.	.	.	.	.	.	.	.	.	.	.	.	.	8ddd\
.	.	.	8e/	.	8ee\	.	.	.	.	.	.	.	.	.	.	.	.	.	.	.	.	.	8eee\
.	.	.	8c#/J	.	8cc#\J	.	.	.	.	.	.	.	.	.	.	.	.	.	.	.	.	.	8ccc#\J
.	.	.	4A/	.	4a/	.	.	.	.	.	.	.	.	.	.	.	.	.	.	.	.	.	4aa\
!	!	!	!	!	!LO:LB:g=original	!	!	!	!	!	!	!	!	!	!	!	!	!	!	!	!	!	!
=23	=23	=23	=23	=23	=23	=23	=23	=23	=23	=23	=23	=23	=23	=23	=23	=23	=23	=23	=23	=23	=23	=23	=23
2.DD/ 2.D	.	.	8d/L	.	8dd\L	.	2D\	Je-	2f#\	Je-	2a\	Je-	.	2.f#\	.	2.a\	.	2.a/	2.ff#\	.	2.ff#\	.	2.ddd\
.	.	.	8f#/	.	8ff#\	.	.	.	.	.	.	.	.	.	.	.	.	.	.	.	.	.	.
.	.	.	8a/	.	8aa\	.	.	.	.	.	.	.	.	.	.	.	.	.	.	.	.	.	.
.	.	.	8g#X/	.	8gg#X\	.	.	.	.	.	.	.	.	.	.	.	.	.	.	.	.	.	.
.	.	.	8e/	.	8ee\	.	4D\	-ſum	4f#\	-ſum	4a\	-ſum	.	.	.	.	.	.	.	.	.	.	.
.	.	.	8g#/J	.	8gg#\J	.	.	.	.	.	.	.	.	.	.	.	.	.	.	.	.	.	.
=24	=24	=24	=24	=24	=24	=24	=24	=24	=24	=24	=24	=24	=24	=24	=24	=24	=24	=24	=24	=24	=24	=24	=24
2.D/	.	.	8a/L	.	8aa\L	.	2D\	Chri-	2f#\	(Chris)-	2a\	(Chris)-	.	2f#\	.	2a\	.	2.a/	2.ff#\	.	2.ff#\	.	2.ddd\
!	!	!	!LO:SIC:s=8g#	!	!LO:SIC:s=8gg#	!	!	!	!	!	!	!	!	!	!	!	!	!	!	!	!	!	!
.	.	.	8g/	.	8gg\	.	.	.	.	.	.	.	.	.	.	.	.	.	.	.	.	.	.
.	.	.	8a/	.	8aa\	.	.	.	.	.	.	.	.	.	.	.	.	.	.	.	.	.	.
.	.	.	8b/	.	8bb\	.	.	.	.	.	.	.	.	.	.	.	.	.	.	.	.	.	.
*	*	*	*	*	*	*	*	*	*custos:f#	*	*	*	*	*	*	*	*	*	*	*	*	*	*
.	.	.	8a/	.	8aa\	.	4D\	-ſtum	4f#\	-tum	4a\	-tum	.	4f#\	.	4a\	.	.	.	.	.	.	.
.	.	.	8gn/J	.	8ggn\J	.	.	.	.	.	.	.	.	.	.	.	.	.	.	.	.	.	.
!	!	!	!LO:LB:g=original	!	!	!	!	!	!LO:LB:g=original	!	!	!	!	!	!	!	!	!	!	!	!	!	!
=25	=25	=25	=25	=25	=25	=25	=25	=25	=25	=25	=25	=25	=25	=25	=25	=25	=25	=25	=25	=25	=25	=25	=25
2.D/	.	.	8f#/L	.	8ff#\L	.	2D\	Fi-	2f#\	Fi-	2a\	Fi-	.	2d\	.	2f#\	.	2.a/	2.ff#\	.	2.ff#\	.	2.aa\
.	.	.	8e/	.	8ee\	.	.	.	.	.	.	.	.	.	.	.	.	.	.	.	.	.	.
.	.	.	8g/	.	8gg\	.	.	.	.	.	.	.	.	.	.	.	.	.	.	.	.	.	.
.	.	.	8f#/	.	8ff#\	.	.	.	.	.	.	.	.	.	.	.	.	.	.	.	.	.	.
.	.	.	8e/	.	8ee\	.	4D\	-li-	4f#\	-li-	4a\	-li	.	4d\	.	4f#\	.	.	.	.	.	.	.
.	.	.	8d/J	.	8dd\J	.	.	.	.	.	.	.	.	.	.	.	.	.	.	.	.	.	.
!	!	!	!	!	!	!	!	!	!	!	!	!	!	!LO:LB:g=original	!	!LO:LB:g=original	!	!	!	!	!	!	!
=26	=26	=26	=26	=26	=26	=26	=26	=26	=26	=26	=26	=26	=26	=26	=26	=26	=26	=26	=26	=26	=26	=26	=26
*	*	*	*	*	*	*	*	*	*	*	*	*	*	*	*	*	*	*	*	*	*custos:ee	*	*
2.AA/ 2.A	.	.	8c#/L	.	8cc#\L	.	2.A\	-um	2.e\	-um	2.a\	.	.	2.A/	.	2.e\	.	2.cc#\	2.ee\	.	2.ee\	.	8ccc#\L
.	.	.	8d/	.	8dd\	.	.	.	.	.	.	.	.	.	.	.	.	.	.	.	.	.	8ddd\
.	.	.	8e/	.	8ee\	.	.	.	.	.	.	.	.	.	.	.	.	.	.	.	.	.	8eee\
.	.	.	8c#/J	.	8cc#\J	.	.	.	.	.	.	.	.	.	.	.	.	.	.	.	.	.	8ccc#\J
*	*	*	*	*	*	*	*	*	*	*	*	*	*	*	*	*	*	*	*	*	*	*	*custos:cc#
.	.	.	4A/	.	4a/	.	.	.	.	.	.	.	.	.	.	.	.	.	.	.	.	.	4aa/
!	!	!	!	!	!	!	!LO:LB:g=original	!	!	!	!	!	!	!	!	!	!	!	!	!	!	!	!LO:LB:g=original
!	!	!	!	!	!	!	!	!	!	!	!	!	!	!	!	!	!	!	!	!	!LO:LB:g=original	!	!
!	!	!	!	!	!	!	!	!	!	!	!	!	!	!	!	!	!	!LO:LB:g=original	!	!	!	!	!
=27	=27	=27	=27	=27	=27	=27	=27	=27	=27	=27	=27||:	=27	=27	=27	=27	=27	=27	=27	=27	=27	=27	=27	=27
4AA\ 4A	.	.	4f#/ 4a	.	8gg\L	.	4A\	Fi-	4e\	Fi-	4cc#\	Fi-	.	4A/	.	4e\	.	4ee\	4gg\	.	4ee\	.	4ccc#\
.	.	.	.	.	8ff#\	.	.	.	.	.	.	.	.	.	.	.	.	.	.	.	.	.	.
4AA\ 4A	.	.	4f#/ 4a	.	8gg\	.	4A\	-li-	4e\	-li-	4cc#\	-li-	.	4A/	.	4e\	.	4ee\	4gg\	.	4ee\	.	4ccc#\
.	.	.	.	.	8bb\	.	.	.	.	.	.	.	.	.	.	.	.	.	.	.	.	.	.
4AA\ 4A	.	.	4e/ 4a	.	8ee\	.	4A\	-um	4e\	-um	4cc#\	-um	.	4A/	.	4e\	.	4ee\	4gg\	.	4ee\	.	4ccc#\
.	.	.	.	.	8cc#\J	.	.	.	.	.	.	.	.	.	.	.	.	.	.	.	.	.	.
=28	=28	=28	=28	=28	=28	=28	=28	=28	=28	=28	=28	=28	=28	=28	=28	=28	=28	=28	=28	=28	=28	=28	=28
*	*	*	*^	*	*	*	*	*	*	*	*	*	*	*	*	*	*	*	*	*	*	*	*
4D\	8_	.	4a/	2.f#\	.	8dd\L	.	2D\	De-	2f#\	De-	2dd\	De-	.	2d\	.	2f#\	.	4dd\	4ff#\	.	4ff#\	.	4ddd\
.	.	.	.	.	.	8ee\	.	.	.	.	.	.	.	.	.	.	.	.	.	.	.	.	.	.
4D\	.	.	4a/	.	.	8ff#\	.	.	.	.	.	.	.	.	.	.	.	.	4dd\	4ff#\	.	4ff#\	.	4ddd\
.	.	.	.	.	.	8gg\J	.	.	.	.	.	.	.	.	.	.	.	.	.	.	.	.	.	.
4D\	.	.	4a/	.	.	4aa\	.	4D\	-i	4f#\	-i	4dd\	-i	.	4d\	.	4f#\	.	4dd\	4ff#\	.	4ff#\	.	4ddd\
!LO:LB:g=original	!	!	!	!	!	!	!	!	!	!	!	!	!	!	!	!	!	!	!	!	!	!	!	!
=29	=29	=29	=29	=29	=29	=29	=29	=29	=29	=29	=29	=29	=29	=29	=29	=29	=29	=29	=29	=29	=29	=29	=29	=29
4AA/ 4A	.	.	4a/	2.e\	.	8gg\L	.	2A\	U-	2e\	U-	2cc#\	U-	.	2A/	.	2e\	.	2ee\	2.gg\	.	2.ee\	.	4ccc#\
.	.	.	.	.	.	8aa\	.	.	.	.	.	.	.	.	.	.	.	.	.	.	.	.	.	.
4AA/ 4A	.	.	4a/	.	.	8bb\	.	.	.	.	.	.	.	.	.	.	.	.	.	.	.	.	.	4ccc#\
.	.	.	.	.	.	8gg\	.	.	.	.	.	.	.	.	.	.	.	.	.	.	.	.	.	.
4AA/ 4A	.	.	4a/	.	.	8ee\	.	4A\	-ni-	4e\	-ni-	4cc#\	-ni-	.	4A/	.	4e\	.	4ee\	.	.	.	.	4ccc#\
.	.	.	.	.	.	8cc#\J	.	.	.	.	.	.	.	.	.	.	.	.	.	.	.	.	.	.
!	!	!	!	!	!	!	!	!	!	!	!	!	!	!	!	!	!	!	!	!LO:LB:g=original	!	!	!	!
=30	=30	=30	=30	=30	=30	=30	=30	=30	=30	=30	=30	=30	=30	=30	=30	=30	=30	=30	=30	=30	=30	=30	=30	=30
4D\	8_	.	4a/	2.f#\	.	8dd\L	.	4.D\	-ge-	4.f#\	-ge-	4.dd\	-Ge-	.	4.d\	.	4.f#\	.	2dd\	2.ff#\	.	2.ff#\	.	8ddd\L
.	.	.	.	.	.	8ee\	.	.	.	.	.	.	.	.	.	.	.	.	.	.	.	.	.	8eee\
4D\	.	.	4a/	.	.	8ff#\	.	.	.	.	.	.	.	.	.	.	.	.	.	.	.	.	.	8fff#\
.	.	.	.	.	.	8cc#\J	.	8D\	-ni-	8e\	-ni-	8cc#\	-ni-	.	8A/	.	8e\	.	.	.	.	.	.	8ccc#\J
4D\	.	.	4a/	.	.	4dd\	.	4D\	-tum	4f#\	-tum	4dd\	-tum	.	4d\	.	4f#\	.	4dd\	.	.	.	.	4ddd\
=31	=31	=31	=31	=31	=31	=31	=31	=31	=31	=31	=31	=31:||	=31	=31	=31	=31	=31	=31	=31	=31	=31	=31	=31	=31
!	!	!	!	!	!	!	!	!	!	!	!	!LO:TX:t=P:problem=fragment oznaczony znakami repetycji	!	!	!	!	!	!	!	!	!	!	!	!
*	*	*	*	*	*	*	*	*	*ij	*	*	*	*	*	*	*	*	*	*	*	*	*	*	*
4AA/	.	.	4a/	2.e\	.	8gg\L	.	4A\	Fi-	4e\	Fi-	4cc#\yy	Fi-	.	2A/	.	2e\	.	4ee\	4gg\	.	2.ee\	.	2.ccc#\
.	.	.	.	.	.	8ff#\	.	.	.	.	.	.	.	.	.	.	.	.	.	.	.	.	.	.
4AA/	.	.	4a/	.	.	8gg\	.	4A\	-li-	4e\	-li-	4cc#\yy	-li-	.	.	.	.	.	4ee\	4gg\	.	.	.	.
.	.	.	.	.	.	8bb\	.	.	.	.	.	.	.	.	.	.	.	.	.	.	.	.	.	.
4AA/	.	.	4a/	.	.	8ee\	.	4A\	-um	4e\	-um	4cc#\yy	-um	.	4A/	.	4e\	.	4ee\	4gg\	.	.	.	.
.	.	.	.	.	.	8cc#\J	.	.	.	.	.	.	.	.	.	.	.	.	.	.	.	.	.	.
=32	=32	=32	=32	=32	=32	=32	=32	=32	=32	=32	=32	=32	=32	=32	=32	=32	=32	=32	=32	=32	=32	=32	=32	=32
4D\	.	.	4a/	2.f#\	.	8dd\L	.	2D\	De-	2f#\	De-	2dd\yy	De-	.	2d\	.	2f#\	.	2dd\	2ff#\	.	2.ff#\	.	2.ddd\
.	.	.	.	.	.	8ee\	.	.	.	.	.	.	.	.	.	.	.	.	.	.	.	.	.	.
4D\	.	.	4a/	.	.	8ff#\	.	.	.	.	.	.	.	.	.	.	.	.	.	.	.	.	.	.
.	.	.	.	.	.	8gg\J	.	.	.	.	.	.	.	.	.	.	.	.	.	.	.	.	.	.
4D\	.	.	4a/	.	.	4aa\	.	4D\	-i	4f#\	-i	4dd\yy	-i	.	4d\	.	4f#\	.	4ff#\	4aa\	.	.	.	.
=33	=33	=33	=33	=33	=33	=33	=33	=33	=33	=33	=33	=33	=33	=33	=33	=33	=33	=33	=33	=33	=33	=33	=33	=33
4AA/	.	.	4a/	2.e\	.	8gg\L	.	2A\	U-	2e\	U-	2cc#\yy	U-	.	2A/	.	2e\	.	4ee\	4gg\	.	2.ee\	.	2.ccc#\
.	.	.	.	.	.	8aa\J	.	.	.	.	.	.	.	.	.	.	.	.	.	.	.	.	.	.
!	!	!	!	!	!	!LO:LB:g=original	!	!	!	!	!	!	!	!	!	!	!	!	!	!	!	!	!	!
4AA/	.	.	4a/	.	.	8bb\L	.	.	.	.	.	.	.	.	.	.	.	.	4ee\	4gg\	.	.	.	.
.	.	.	.	.	.	8gg\	.	.	.	.	.	.	.	.	.	.	.	.	.	.	.	.	.	.
*	*	*	*	*	*	*	*	*	*	*custos:f#	*	*	*	*	*	*	*	*	*	*	*	*	*	*
4AA/	.	.	4a/	.	.	8ee\	.	4A\	-ni-	4e\	-ni-	4cc#\yy	-ni-	.	4A/	.	4e\	.	4ee\	4gg\	.	.	.	.
.	.	.	.	.	.	8cc#\J	.	.	.	.	.	.	.	.	.	.	.	.	.	.	.	.	.	.
!	!	!	!	!	!	!	!	!	!	!LO:LB:g=original	!	!	!	!	!	!	!	!	!	!	!	!	!	!
=34	=34	=34	=34	=34	=34	=34	=34	=34	=34	=34	=34	=34	=34	=34	=34	=34	=34	=34	=34	=34	=34	=34	=34	=34
4D\	.	.	4a/	2.f#\	.	8dd\L	.	4.D\	-ge-	4.f#\	-ge-	4.dd\yy	-Ge-	.	4.d\	.	4.f#\	.	2dd\	2ff#\	.	2.ff#\	.	8ddd\L
.	.	.	.	.	.	8ee\	.	.	.	.	.	.	.	.	.	.	.	.	.	.	.	.	.	8eee\
4AA/	.	.	4a/	.	.	8ff#\	.	.	.	.	.	.	.	.	.	.	.	.	.	.	.	.	.	8fff#\
.	.	.	.	.	.	8cc#\J	.	8D\	-ni-	8e\	-ni-	8cc#\yy	-ni-	.	8A/	.	8e\	.	.	.	.	.	.	8ccc#\J
4D\	.	.	4a/	.	.	4dd\	.	4D\	-tum/	4f#\	-tum	4dd\yy	-tum	.	4d\	.	4f#\	.	4dd\	4ff#\	.	.	.	4ddd\
*	*	*	*	*	*	*	*	*	*Xij	*	*	*	*	*	*	*	*	*	*	*	*	*	*	*
=35	=35	=35	=35	=35	=35	=35	=35	=35	=35	=35	=35	=35	=35	=35	=35	=35	=35	=35	=35	=35	=35	=35	=35	=35
4DD/	.	.	4a/	4f#\	.	8dd\L	.	2D/	et	2f#\	Et	2dd\	Et	.	4F#/	.	4d\	.	4f#/	4dd\	.	4ff#\	.	2ddd\
.	.	.	.	.	.	8cc#\J	.	.	.	.	.	.	.	.	.	.	.	.	.	.	.	.	.	.
4D\	.	.	4a/	4f#\	.	4dd\	.	.	.	.	.	.	.	.	4F#/	.	4d\	.	4f#/	4dd\	.	4ff#\	.	.
4C#\	6	.	4a/	4e\	.	4ee\	.	4C#/	ex	4a\	ex	4ee\	ex	.	4A/	.	4e\	.	4a/	4ee\	.	4ee\	.	4eee\
*	*	*	*v	*v	*	*	*	*	*	*	*	*	*	*	*	*	*	*	*	*	*	*	*	*
=36	=36	=36	=36	=36	=36	=36	=36	=36	=36	=36	=36	=36	=36	=36	=36	=36	=36	=36	=36	=36	=36	=36	=36
4D\	.	.	4f#/ 4a	.	2ff#\	.	2D\	Pa-	2a\	Pa-	2ff#\	Pa-	.	2d\	.	2f#\	.	2a/	2ff#\	.	2ff#\	.	2fff#\
4d\	.	.	4f#/ 4a	.	.	.	.	.	.	.	.	.	.	.	.	.	.	.	.	.	.	.	.
4c#\	6	.	4e/ 4a	.	4ee\	.	4C#/	-tre	4a\	-tre	4ee\	-tre	.	4A/	.	4e\	.	4a/	4ee\	.	4ee\	.	4eee\
=37	=37	=37	=37	=37	=37	=37	=37	=37	=37	=37	=37	=37	=37	=37	=37	=37	=37	=37	=37	=37	=37	=37	=37
8d\L	.	.	4f#/ 4a	.	8ff#\L	.	(4D\	na-	(4a\	na-	8ff#\L	na-	.	4d\	.	4f#\	.	4a/	4ff#\	.	4ff#\	.	8fff#\L
8B\J	.	.	.	.	8dd\J	.	.	.	.	.	8dd\J	.	.	.	.	.	.	.	.	.	.	.	8ddd\J
4G\	-	.	4b/	.	4ee\	.	4G\	.	4g\	.	4ee\	.	.	4r	.	4e\	.	4g/	4ff#\	.	4gg\	.	4eee\
4A\	3	.	4e/	.	8ee\L	.	4A\)	.	4e\)	.	8ee\L	.	.	4A/	.	4e\	.	4g/	4ee\	.	4ee\	.	8eee\L
.	.	.	.	.	8cc#\J	.	.	.	.	.	8cc#\J	.	.	.	.	.	.	.	.	.	.	.	8ccc#\J
!	!	!	!	!	!	!	!	!	!	!	!	!	!	!	!	!LO:LB:g=original	!	!	!	!	!	!	!
=38	=38	=38	=38	=38	=38	=38	=38	=38	=38	=38	=38	=38	=38	=38	=38	=38	=38	=38	=38	=38	=38	=38	=38
4D/	.	.	4f#/ 4a	.	2.dd\	.	2D\	-tum	2.f#\	-tum	2.dd\	-tum	.	2.F#/	.	2.d\	.	2.f#/	2.dd\	.	2ff#\	.	4ddd\
8AA/L	.	.	4a/	.	.	.	.	.	.	.	.	.	.	.	.	.	.	.	.	.	.	.	4r
8FF#/J	.	.	.	.	.	.	.	.	.	.	.	.	.	.	.	.	.	.	.	.	.	.	.
4DD/	.	.	4f#/	.	.	.	4r	.	.	.	.	.	.	.	.	.	.	.	.	.	4r	.	4r
!	!	!	!	!	!	!	!	!	!	!	!	!	!	!LO:LB:g=original	!	!	!	!	!	!	!	!	!
=39	=39	=39	=39	=39	=39	=39	=39	=39	=39	=39	=39	=39	=39	=39	=39	=39	=39	=39	=39	=39	=39	=39	=39
4D\	.	.	4f#/ 4a	.	8dd\L	.	2D/	an-	2f#\	an-	2dd\	an-	.	2F#/	.	2d\	.	4f#/	4r	.	4ff#\	.	4ddd\
.	.	.	.	.	8cc#\J	.	.	.	.	.	.	.	.	.	.	.	.	.	.	.	.	.	.
4D\	.	.	4f#/ 4a	.	8dd\L	.	.	.	.	.	.	.	.	.	.	.	.	4f#/	4dd\	.	4ff#\	.	4ddd\
.	.	.	.	.	8ff#\	.	.	.	.	.	.	.	.	.	.	.	.	.	.	.	.	.	.
4C#/	3	.	4e/ 4a	.	8ee\	.	4C#/	-te	4a\	-te	4ee\	-te	.	4A/	.	4e\	.	4a/	4ee\	.	4ee\	.	4eee\
.	.	.	.	.	8gg\J	.	.	.	.	.	.	.	.	.	.	.	.	.	.	.	.	.	.
!	!	!	!	!	!	!	!LO:LB:g=original	!	!	!	!	!	!	!	!	!	!	!	!	!	!	!	!
=40	=40	=40	=40	=40	=40	=40	=40	=40	=40	=40	=40	=40	=40	=40	=40	=40	=40	=40	=40	=40	=40	=40	=40
4D\	.	.	4f#/ 4a	.	2ff#\	.	4.D/	Om-	4.a\	om-	4.ff#\	om-	.	2d\	.	2f#\	.	2a/	2ff#\	.	2ff#\	.	2fff#\
4d\	.	.	4f#/ 4a	.	.	.	.	.	.	.	.	.	.	.	.	.	.	.	.	.	.	.	.
.	.	.	.	.	.	.	8D/	-ni-	8a\	-ni-	8ff#\	-ni-	.	.	.	.	.	.	.	.	.	.	.
*	*	*	*	*	*	*	*	*	*	*	*	*	*	*	*	*	*	*	*	*	*custos:ff#	*	*
4c#\	3	.	4e/ 4a	.	4ee\	.	4C#/	-a	4a\	-a	4ee\	-a	.	4A/	.	4e\	.	4a/	4ee\	.	4ee\	.	4eee\
!	!	!	!LO:LB:g=original	!	!	!	!	!	!	!	!	!	!	!	!	!	!	!	!	!	!LO:LB:g=original	!	!
=41	=41	=41	=41	=41	=41	=41	=41	=41	=41	=41	=41	=41	=41	=41	=41	=41	=41	=41	=41	=41	=41	=41	=41
4d\	.	.	4f#/ 4a	.	8ff#\L	.	(4D\	ſae-	4a\	ſae-	4ff#\	ſae-	.	2d\	.	2f#\	.	4a/	4ff#\	.	4ff#\	.	2fff#\
.	.	.	.	.	8aa\	.	.	.	.	.	.	.	.	.	.	.	.	.	.	.	.	.	.
!	!	!	!LO:SIC:s=4f#	!	!	!	!	!	!	!	!	!	!	!	!	!	!	!	!	!	!	!	!
4D\	.	.	4e/ 4a	.	8ff#\	.	4G\)	.	4g\	.	4dd\	.	.	.	.	.	.	4a/	4ff#\	.	4gg\	.	.
.	.	.	.	.	8dd\	.	.	.	.	.	.	.	.	.	.	.	.	.	.	.	.	.	.
4A\	3	.	4e/ 4a	.	8ee\	.	4A\	-cu-	4e\	-cu-	8ee\L	-cu-	.	4A/	.	4e\	.	4g/	4ee\	.	4ee\	.	4eee\
.	.	.	.	.	8cc#\J	.	.	.	.	.	8cc#\J	.	.	.	.	.	.	.	.	.	.	.	.
=42	=42	=42	=42	=42	=42	=42	=42	=42	=42	=42	=42	=42	=42	=42	=42	=42	=42	=42	=42	=42	=42	=42	=42
4D/	.	.	4f#/ 4a	.	4dd\	.	2D\	-la	2f#\	-la	2.dd\	-la	.	2F#/	.	2d\	.	4f#/	4dd\	.	4ff#\	.	4ddd\
*	*	*	*	*	*	*	*	*	*	*	*	*	*	*	*	*	*	*	*	*	*	*	*X8va
!	!	!	!	!	!	!	!	!	!	!	!	!	!	!	!	!	!	!	!	!	!	!	!LO:LB:g=original
8D`/L	.	.	4r	.	4r	.	.	.	.	.	.	.	.	.	.	.	.	4r	4r	.	4r	.	4r
8Cn`/	.	.	.	.	.	.	.	.	.	.	.	.	.	.	.	.	.	.	.	.	.	.	.
8BB`/	.	.	4r	.	4r	.	4r	.	4r	.	.	.	.	4r	.	4r	.	4r	4r	.	4r	.	4r
8AA`/J	.	.	.	.	.	.	.	.	.	.	.	.	.	.	.	.	.	.	.	.	.	.	.
!LO:LB:g=original	!	!	!	!	!	!	!	!	!	!	!LO:LB:g=original	!	!	!	!	!	!	!	!	!	!	!	!
=43	=43	=43	=43	=43	=43	=43	=43	=43	=43	=43	=43	=43	=43	=43	=43	=43	=43	=43	=43	=43	=43	=43	=43
!	!	!	!	!	!	!	!	!	!	!	!	!	!	!LO:TX:b:t=Pauſ.	!	!	!	!LO:TX:b:t=Pauſ	!LO:TX:b:t=Pauſ.	!	!	!	!
!LO:TX:a:t=Solo.	!	!LO:DY:a	!	!LO:DY:a	!	!LO:DY:a	!LO:TX:a:t=24	!	!	!	!LO:TX:a:t=Solo	!	!	!LO:TX:a:t=24	!	!LO:TX:a:t=24	!	!LO:TX:a:t=24	!LO:TX:a:t=24	!	!	!	!
!	!	!LO:DY:t=p.	!	!LO:DY:t=p.	!	!LO:DY:t=pp.	!	!	!	!	!	!	!	!	!	!	!	!	!	!	!	!	!
4GG/	.	p	8b/L	p	8dd\L	pp	2.r	.	2.r	.	8dd\L	De-	.	2.r	.	2.r	.	2.r	2.r	.	2.r	.	2.r
.	.	.	8g/J	.	8b\J	.	.	.	.	.	8b\J	.	.	.	.	.	.	.	.	.	.	.	.
4G\	.	.	4B/	.	4g/	.	.	.	.	.	4g\	-um	.	.	.	.	.	.	.	.	.	.	.
4D\	.	.	4d/	.	4a/	.	.	.	.	.	4a\	de	.	.	.	.	.	.	.	.	.	.	.
=44	=44	=44	=44	=44	=44	=44	=44	=44	=44	=44	=44	=44	=44	=44	=44	=44	=44	=44	=44	=44	=44	=44	=44
4G\	.	.	4.g/	.	4.b\	.	2.r	.	2.r	.	4.b\	De-	.	2.r	.	2.r	.	2.r	2.r	.	2.r	.	2.r
4GG/	.	.	.	.	.	.	.	.	.	.	.	.	.	.	.	.	.	.	.	.	.	.	.
.	.	.	8a/	.	8ccn\	.	.	.	.	.	8ccn\	.	.	.	.	.	.	.	.	.	.	.	.
4r	.	.	4b/	.	4dd\	.	.	.	.	.	4dd\	-o	.	.	.	.	.	.	.	.	.	.	.
!	!	!	!	!	!LO:LB:g=original	!	!	!	!	!	!	!	!	!	!	!	!	!	!	!	!	!	!
=45	=45	=45	=45	=45	=45	=45	=45	=45	=45	=45	=45	=45	=45	=45	=45	=45	=45	=45	=45	=45	=45	=45	=45
!LO:SIC:s=4Cn	!	!	!	!	!	!	!	!	!	!	!	!	!	!	!	!	!	!	!	!	!	!	!
4C#/	.	.	4ccn\	.	4ee\	.	2.r	.	2.r	.	4ee\	Lu-	.	2.r	.	2.r	.	2.r	2.r	.	2.r	.	2.r
4r	.	.	8a/L	.	8ccn/L	.	.	.	.	.	8ccn\L	-men	.	.	.	.	.	.	.	.	.	.	.
.	.	.	8g/	.	8b/	.	.	.	.	.	8b\J	.	.	.	.	.	.	.	.	.	.	.	.
4C#X/	6:5	.	8f#/	.	8a/	.	.	.	.	.	8a\L	de	.	.	.	.	.	.	.	.	.	.	.
.	.	.	8e/J	.	8g/J	.	.	.	.	.	8g\J	.	.	.	.	.	.	.	.	.	.	.	.
=46	=46	=46	=46	=46	=46	=46	=46	=46	=46	=46	=46	=46	=46	=46	=46	=46	=46	=46	=46	=46	=46	=46	=46
.	.	.	.	.	8qqg/	.	.	.	.	.	.	.	.	.	.	.	.	.	.	.	.	.	.
4D/	.	.	4.d/	.	4.f#/	.	2.r	.	2.r	.	4.f#/	lu-	.	2.r	.	2.r	.	2.r	2.r	.	2.r	.	2.r
4AA/	.	.	.	.	.	.	.	.	.	.	.	.	.	.	.	.	.	.	.	.	.	.	.
.	.	.	8c#X/	.	8e/	.	.	.	.	.	8e/	-mi-	.	.	.	.	.	.	.	.	.	.	.
4DD/	.	.	4d/	.	4d/	.	.	.	.	.	4d/	-ne	.	.	.	.	.	.	.	.	.	.	.
=47	=47	=47	=47	=47	=47	=47	=47	=47	=47	=47	=47	=47	=47	=47	=47	=47	=47	=47	=47	=47	=47	=47	=47
4A\	5|	.	8d/	.	2ccn/	.	2.r	.	2.r	.	2ccn\	De-	.	2.r	.	2.r	.	2.r	2.r	.	2.r	.	2.r
.	.	.	4d/	.	.	.	.	.	.	.	.	.	.	.	.	.	.	.	.	.	.	.	.
4F#\	.	.	.	.	.	.	.	.	.	.	.	.	.	.	.	.	.	.	.	.	.	.	.
.	.	.	4d/	.	.	.	.	.	.	.	.	.	.	.	.	.	.	.	.	.	.	.	.
4D\	5	.	.	.	4a/	.	.	.	.	.	4a\	-um	.	.	.	.	.	.	.	.	.	.	.
.	.	.	8d/	.	.	.	.	.	.	.	.	.	.	.	.	.	.	.	.	.	.	.	.
=48	=48	=48	=48	=48	=48	=48	=48	=48	=48	=48	=48	=48	=48	=48	=48	=48	=48	=48	=48	=48	=48	=48	=48
4G\	.	.	8d/	.	2b/	.	2.r	.	2.r	.	2b\	ve-	.	2.r	.	2.r	.	2.r	2.r	.	2.r	.	2.r
.	.	.	4d/	.	.	.	.	.	.	.	.	.	.	.	.	.	.	.	.	.	.	.	.
4GG/	.	.	.	.	.	.	.	.	.	.	.	.	.	.	.	.	.	.	.	.	.	.	.
.	.	.	4d/	.	.	.	.	.	.	.	.	.	.	.	.	.	.	.	.	.	.	.	.
4B\	6	.	.	.	4g/	.	.	.	.	.	4g\	-rum	.	.	.	.	.	.	.	.	.	.	.
.	.	.	8d/	.	.	.	.	.	.	.	.	.	.	.	.	.	.	.	.	.	.	.	.
=49	=49	=49	=49	=49	=49	=49	=49	=49	=49	=49	=49	=49	=49	=49	=49	=49	=49	=49	=49	=49	=49	=49	=49
*	*	*	*	*	*	*	*	*	*	*	*	*ij	*	*	*	*	*	*	*	*	*	*	*
4A\	5|	.	8d/	.	2ccn\	.	2.r	.	2.r	.	2ccn\	De-	.	2.r	.	2.r	.	2.r	2.r	.	2.r	.	2.r
.	.	.	4d/	.	.	.	.	.	.	.	.	.	.	.	.	.	.	.	.	.	.	.	.
4F#\	.	.	.	.	.	.	.	.	.	.	.	.	.	.	.	.	.	.	.	.	.	.	.
.	.	.	4d/	.	.	.	.	.	.	.	.	.	.	.	.	.	.	.	.	.	.	.	.
4D\	.	.	.	.	4a/	.	.	.	.	.	4a\	-um	.	.	.	.	.	.	.	.	.	.	.
.	.	.	8d/	.	.	.	.	.	.	.	.	.	.	.	.	.	.	.	.	.	.	.	.
=50	=50	=50	=50	=50	=50	=50	=50	=50	=50	=50	=50	=50	=50	=50	=50	=50	=50	=50	=50	=50	=50	=50	=50
4G\	3	.	8g/	.	4b\	.	2.r	.	2.r	.	4b\	ve-	.	2.r	.	2.r	.	2.r	2.r	.	2.r	.	2.r
.	.	.	4g/	.	.	.	.	.	.	.	.	.	.	.	.	.	.	.	.	.	.	.	.
!	!	!	!	!	!	!	!	!	!	!	!LO:SIC:s=4ccn	!	!	!	!	!	!	!	!	!	!	!	!
4A\	3	.	.	.	4cc#\	.	.	.	.	.	4cc#\	-rum	.	.	.	.	.	.	.	.	.	.	.
.	.	.	4g/	.	.	.	.	.	.	.	.	.	.	.	.	.	.	.	.	.	.	.	.
*	*	*	*	*	*	*	*	*	*	*	*	*Xij	*	*	*	*	*	*	*	*	*	*	*
4B\	3	.	.	.	4dd\	.	.	.	.	.	4dd\	de	.	.	.	.	.	.	.	.	.	.	.
.	.	.	8g/	.	.	.	.	.	.	.	.	.	.	.	.	.	.	.	.	.	.	.	.
=51	=51	=51	=51	=51	=51	=51	=51	=51	=51	=51	=51	=51	=51	=51	=51	=51	=51	=51	=51	=51	=51	=51	=51
4cn\	.	.	4g/	.	8ee\L	.	2.r	.	2.r	.	8ee\	De-	.	2.r	.	2.r	.	2.r	2.r	.	2.r	.	2.r
!	!	!	!	!	!	!	!	!	!	!	!LO:SIC:s=8ccn	!	!	!	!	!	!	!	!	!	!	!	!
.	.	.	.	.	16dd\L	.	.	.	.	.	8cc#\	-o	.	.	.	.	.	.	.	.	.	.	.
.	.	.	.	.	16cc#\JJ	.	.	.	.	.	.	.	.	.	.	.	.	.	.	.	.	.	.
4d\	4	.	4g/	.	4b/	.	.	.	.	.	(4b\	Ve-	.	.	.	.	.	.	.	.	.	.	.
4D\	3	.	4f#/	.	4a/	.	.	.	.	.	4a\)	.	.	.	.	.	.	.	.	.	.	.	.
=52	=52	=52	=52	=52	=52	=52	=52	=52	=52	=52	=52	=52	=52	=52	=52	=52	=52	=52	=52	=52	=52	=52	=52
!	!	!	!	!	!	!	!	!	!LO:TX:a:t=Vi	!	!	!	!	!	!	!	!	!	!	!	!	!	!
4G\	.	.	2g/	.	2g/	.	2.r	.	2.r	.	2g\	-ro	.	2.r	.	2.r	.	2.r	2.r	.	2.r	.	2.r
8D/L	.	.	.	.	.	.	.	.	.	.	.	.	.	.	.	.	.	.	.	.	.	.	.
8C#/	.	.	.	.	.	.	.	.	.	.	.	.	.	.	.	.	.	.	.	.	.	.	.
8BB/	.	.	4r	.	4r	.	.	.	.	.	4r	.	.	.	.	.	.	.	.	.	.	.	.
8AA/J	.	.	.	.	.	.	.	.	.	.	.	.	.	.	.	.	.	.	.	.	.	.	.
=53	=53	=53	=53	=53	=53	=53	=53	=53	=53	=53	=53	=53	=53	=53	=53	=53	=53	=53	=53	=53	=53	=53	=53
!	!	!	!	!	!	!	!	!	!LO:TX:a:t=de	!	!	!	!	!	!	!	!	!	!	!	!	!	!
4GG/	.	.	4.b/	.	4.dd\	.	2.r	.	4.b\	ge-	4.dd\	Ge-	.	2.r	.	2.r	.	2.r	2.r	.	2.r	.	2.r
4G\	.	.	.	.	.	.	.	.	.	.	.	.	.	.	.	.	.	.	.	.	.	.	.
.	.	.	8a/	.	8ccn\	.	.	.	8a\	-ni-	8ccn\	-ni-	.	.	.	.	.	.	.	.	.	.	.
4r	.	.	4g/	.	4b\	.	.	.	4g\	-tum	4b\	-tum	.	.	.	.	.	.	.	.	.	.	.
=54	=54	=54	=54	=54	=54	=54	=54	=54	=54	=54	=54	=54	=54	=54	=54	=54	=54	=54	=54	=54	=54	=54	=54
!LO:SIC:s=4Cn	!	!	!	!	!	!	!	!	!	!	!	!	!	!	!	!	!	!	!	!	!	!	!
4C#/	3_	.	4ccn\	.	4ee\	.	2.r	.	4ccn\	n(in)	4ee\	n(in)	.	2.r	.	2.r	.	2.r	2.r	.	2.r	.	2.r
!LO:SIC:s=4cn	!	!	!	!	!	!	!	!	!	!	!	!	!	!	!	!	!	!	!	!	!	!	!
4c#\	.	.	8cc\L	.	8ee\L	.	.	.	2cc\	f(a)-	2ee\	fac-	.	.	.	.	.	.	.	.	.	.	.
.	.	.	8dd\	.	8ff#\	.	.	.	.	.	.	.	.	.	.	.	.	.	.	.	.	.	.
!LO:SIC:s=4Cn	!	!	!	!	!	!	!	!	!	!	!	!	!	!	!	!	!	!	!	!	!	!	!
4C#/	.	.	8ee\	.	8gg\	.	.	.	.	.	.	.	.	.	.	.	.	.	.	.	.	.	.
*	*	*	*custos:cc	*	*	*	*	*	*	*	*	*	*	*	*	*	*	*	*	*	*	*	*
.	.	.	8cc\J	.	8ee\J	.	.	.	.	.	.	.	.	.	.	.	.	.	.	.	.	.	.
!	!	!	!LO:LB:g=original	!	!	!	!	!	!	!	!	!	!	!	!	!	!	!	!	!	!	!	!
=55	=55	=55	=55	=55	=55	=55	=55	=55	=55	=55	=55	=55	=55	=55	=55	=55	=55	=55	=55	=55	=55	=55	=55
.	.	.	.	.	8qee/	.	.	.	.	.	8qqee/	.	.	.	.	.	.	.	.	.	.	.	.
4G\	.	.	2b\	.	2dd\	.	2.r	.	2b\	-ctum	2.dd\	-tum	.	2.r	.	2.r	.	2.r	2.r	.	2.r	.	2.r
8D/L	.	.	.	.	.	.	.	.	.	.	.	.	.	.	.	.	.	.	.	.	.	.	.
8BB/J	.	.	.	.	.	.	.	.	.	.	.	.	.	.	.	.	.	.	.	.	.	.	.
4GG/	.	.	4r	.	4r	.	.	.	4r	.	.	.	.	.	.	.	.	.	.	.	.	.	.
!	!	!	!	!	!	!	!	!	!	!	!LO:LB:g=original	!	!	!	!	!	!	!	!	!	!	!	!
=56	=56	=56	=56	=56	=56	=56	=56	=56	=56	=56	=56	=56	=56	=56	=56	=56	=56	=56	=56	=56	=56	=56	=56
!	!	!	!	!	!LO:TX:a:t=h	!	!	!	!	!	!	!	!	!	!	!	!	!	!	!	!	!	!
4GG/	.	.	2g/	.	2b/	.	2.r	.	2g\	Con-	2b\	Con-	.	2.r	.	2.r	.	2.r	2.r	.	2.r	.	2.r
4BB/	.	.	.	.	.	.	.	.	.	.	.	.	.	.	.	.	.	.	.	.	.	.	.
4D\	3	.	4f#/	.	4a/	.	.	.	4f#\	-ſub-	4a\	-ſub-	.	.	.	.	.	.	.	.	.	.	.
=57	=57	=57	=57	=57	=57	=57	=57	=57	=57	=57	=57	=57	=57	=57	=57	=57	=57	=57	=57	=57	=57	=57	=57
4G\	.	.	4.g/	.	4.b/	.	2.r	.	4.g\	-ſtan-	4.b\	-ſtan-	.	2.r	.	2.r	.	2.r	2.r	.	2.r	.	2.r
4GG/	.	.	.	.	.	.	.	.	.	.	.	.	.	.	.	.	.	.	.	.	.	.	.
.	.	.	8f#/	.	8a/	.	.	.	8f#\	-ti-	8a\	-ti-	.	.	.	.	.	.	.	.	.	.	.
*custos:F#	*	*	*	*	*	*	*	*	*	*	*	*	*	*	*	*	*	*	*	*	*	*	*
4G\	.	.	4g/	.	4b/	.	.	.	4g\	-a-	4b\	-a-	.	.	.	.	.	.	.	.	.	.	.
!LO:LB:g=original	!	!	!	!	!LO:LB:g=original	!	!	!	!	!	!	!	!	!	!	!	!	!	!	!	!	!	!
=58	=58	=58	=58	=58	=58	=58	=58	=58	=58	=58	=58	=58	=58	=58	=58	=58	=58	=58	=58	=58	=58	=58	=58
.	.	.	.	.	8qdd/	.	.	.	.	.	.	.	.	.	.	.	.	.	.	.	.	.	.
4F#\	6 n5	.	4a/	.	4ccn\	.	2.r	.	4a\	-lem	4ccn\	-lem	.	2.r	.	2.r	.	2.r	2.r	.	2.r	.	2.r
.	.	.	16qqa/	.	8qcc/	.	.	.	.	.	8qcc/	.	.	.	.	.	.	.	.	.	.	.	.
4G\	.	.	2g/	.	2b\	.	.	.	2g\	Pa-	2b\	Pa-	.	.	.	.	.	.	.	.	.	.	.
4GG/	.	.	.	.	.	.	.	.	.	.	.	.	.	.	.	.	.	.	.	.	.	.	.
=59	=59	=59	=59	=59	=59	=59	=59	=59	=59	=59	=59	=59	=59	=59	=59	=59	=59	=59	=59	=59	=59	=59	=59
4D\	.	.	4f#/	.	4a/	.	2.r	.	2f#\	-tri	2a\	-tri	.	2.r	.	2.r	.	2.r	2.r	.	2.r	.	2.r
4F#\	6	.	4r	.	4r	.	.	.	.	.	.	.	.	.	.	.	.	.	.	.	.	.	.
4A\	.	.	4r	.	4r	.	.	.	4r	.	4r	.	.	.	.	.	.	.	.	.	.	.	.
=60	=60	=60	=60	=60	=60	=60	=60	=60	=60||:	=60	=60	=60	=60	=60	=60	=60	=60	=60	=60	=60	=60	=60	=60
4d\	.	.	2f#/	.	2dd\	.	2.r	.	2f#\	per	2dd\	p(er)	.	2.r	.	2.r	.	2.r	2.r	.	2.r	.	2.r
4D\	.	.	.	.	.	.	.	.	.	.	.	.	.	.	.	.	.	.	.	.	.	.	.
4A\	#	.	8g/L	.	8ee\L	.	.	.	8g\L	quem	8ee\L	quem	.	.	.	.	.	.	.	.	.	.	.
.	.	.	8e/J	.	8cc#X\J	.	.	.	8e\J	.	8cc#X\J	.	.	.	.	.	.	.	.	.	.	.	.
=61	=61	=61	=61	=61	=61	=61	=61	=61	=61	=61	=61	=61	=61	=61	=61	=61	=61	=61	=61	=61	=61	=61	=61
4D\	.	.	4.f#/	.	4.dd\	.	2.r	.	4.f#\	Om-	4.dd\	om-	.	2.r	.	2.r	.	2.r	2.r	.	2.r	.	2.r
4F#\	6	.	.	.	.	.	.	.	.	.	.	.	.	.	.	.	.	.	.	.	.	.	.
.	.	.	8f#/	.	8dd\	.	.	.	8f#\	-ni-	8dd\	-ni-	.	.	.	.	.	.	.	.	.	.	.
4A\	#	.	4e/	.	4cc#\	.	.	.	4e\	-a	4cc#X\	-a	.	.	.	.	.	.	.	.	.	.	.
=62	=62	=62	=62	=62	=62	=62	=62	=62	=62:||	=62	=62	=62	=62	=62	=62	=62	=62	=62	=62	=62	=62	=62	=62
!	!	!	!	!	!	!	!	!	!LO:TX:t=P:problem=fragment oznaczony znakami repetycji	!	!	!	!	!	!	!	!	!	!	!	!	!	!
*	*	*	*	*	*	*	*	*	*	*	*	*ij	*	*	*	*	*	*	*	*	*	*	*
4d\	.	.	2f#/	.	2dd\	.	2.r	.	2f#\yy	per	2dd\	per	.	2.r	.	2.r	.	2.r	2.r	.	2.r	.	2.r
4D\	.	.	.	.	.	.	.	.	.	.	.	.	.	.	.	.	.	.	.	.	.	.	.
4A\	#	.	8g/L	.	8ee\L	.	.	.	8g\Lyy	quem	8ee\L	quem	.	.	.	.	.	.	.	.	.	.	.
.	.	.	8e/J	.	8cc#X\J	.	.	.	8e\Jyy	.	8cc#X\J	.	.	.	.	.	.	.	.	.	.	.	.
=63	=63	=63	=63	=63	=63	=63	=63	=63	=63	=63	=63	=63	=63	=63	=63	=63	=63	=63	=63	=63	=63	=63	=63
4D\	.	.	4.f#/	.	4.dd\	.	2.r	.	4.f#\yy	Om-	4.dd\	om-	.	2.r	.	2.r	.	2.r	2.r	.	2.r	.	2.r
4F#\	6	.	.	.	.	.	.	.	.	.	.	.	.	.	.	.	.	.	.	.	.	.	.
.	.	.	8f#/	.	8dd\	.	.	.	8f#\yy	-ni-	8dd\	-ni-	.	.	.	.	.	.	.	.	.	.	.
4A\	#	.	4e/	.	4cc#X\	.	.	.	4e\yy	-a	4cc#\	-a	.	.	.	.	.	.	.	.	.	.	.
*	*	*	*	*	*	*	*	*	*	*	*	*Xij	*	*	*	*	*	*	*	*	*	*	*
=64	=64	=64	=64	=64	=64	=64	=64	=64	=64	=64	=64	=64	=64	=64	=64	=64	=64	=64	=64	=64	=64	=64	=64
4D\	.	.	4f#/	.	4.dd\	.	2.r	.	4f#\	Om-	4.dd\	om-	.	2.r	.	2.r	.	2.r	2.r	.	2.r	.	2.r
4E\	7	.	4g/	.	.	.	.	.	4g\	-ni-	.	.	.	.	.	.	.	.	.	.	.	.	.
.	.	.	.	.	8dd\	.	.	.	.	.	8dd\	-ni-	.	.	.	.	.	.	.	.	.	.	.
4F#\	6 n5	.	4a/	.	4ccn\	.	.	.	4a\	-a	4ccn\	-a	.	.	.	.	.	.	.	.	.	.	.
=65	=65	=65	=65	=65	=65	=65	=65	=65	=65	=65	=65	=65	=65	=65	=65	=65	=65	=65	=65	=65	=65	=65	=65
4G\	.	.	4d/	.	4b/	.	2.r	.	(4g\	fa-	8b\L	fa-	.	2.r	.	2.r	.	2.r	2.r	.	2.r	.	2.r
.	.	.	.	.	.	.	.	.	.	.	16a\L	.	.	.	.	.	.	.	.	.	.	.	.
.	.	.	.	.	.	.	.	.	.	.	16b\JJ	.	.	.	.	.	.	.	.	.	.	.	.
!	!	!	!	!	!LO:SIC:s=4ccn	!	!	!	!	!	!LO:SIC:s=4ccn	!	!	!	!	!	!	!	!	!	!	!	!
4Cn/	6	.	4e/	.	4cc#/	.	.	.	4a\)	.	4cc#\	.	.	.	.	.	.	.	.	.	.	.	.
4D/	3	.	4cn/	.	4a/	.	.	.	4f#\	-cta	4a\	-cta	.	.	.	.	.	.	.	.	.	.	.
=66	=66	=66	=66	=66	=66	=66	=66	=66	=66	=66	=66	=66	=66	=66	=66	=66	=66	=66	=66	=66	=66	=66	=66
8G'\L	.	.	4B/	.	2g/	.	2.r	.	2g\	ſunt.	2g\	ſunt	.	2.r	.	2.r	.	2.r	2.r	.	2.r	.	2.r
8B'\	.	.	.	.	.	.	.	.	.	.	.	.	.	.	.	.	.	.	.	.	.	.	.
8A'\	.	.	4r	.	.	.	.	.	.	.	.	.	.	.	.	.	.	.	.	.	.	.	.
8G'\	.	.	.	.	.	.	.	.	.	.	.	.	.	.	.	.	.	.	.	.	.	.	.
!	!	!	!	!	!	!	!	!	!LO:TX:a:t=Retro	!	!	!	!	!	!	!	!	!	!	!	!	!	!
8F#'\	.	.	4r	.	4r	.	.	.	4r	.	4r	.	.	.	.	.	.	.	.	.	.	.	.
8E'\J	.	.	.	.	.	.	.	.	.	.	.	.	.	.	.	.	.	.	.	.	.	.	.
!	!	!	!	!	!	!	!	!	!LO:LB:g=original	!	!	!	!	!	!	!	!	!	!	!	!	!	!
=67	=67	=67	=67	=67	=67	=67	=67	=67	=67	=67	=67	=67	=67	=67	=67	=67	=67	=67	=67	=67	=67	=67	=67
*	*	*	*	*	*	*	*	*	*	*	*	*	*	*	*	*	*	*	*	*	*	*	*8va
!LO:TX:a:t=Tutti	!	!LO:DY:a	!	!LO:DY:a	!	!LO:DY:a	!	!	!	!	!	!	!LO:DY:a	!	!	!	!	!	!	!LO:DY:a	!	!	!
!	!	!	!	!	!	!	!	!	!	!	!	!	!LO:DY:t=ffor&colon;	!	!	!	!	!	!	!	!	!	!
!	!	!	!	!LO:DY:t=ffor&colon;	!	!LO:DY:t=ffor&colon;	!	!	!	!	!	!	!	!	!	!	!	!	!	!	!	!	!
!	!	!LO:DY:t=ff.	!	!	!	!	!	!	!	!	!	!	!	!	!	!	!	!	!	!LO:DY:t=f.	!	!	!
4D\	.	ff	4f#/ 4a	ff	8dd\L	ff	2D/	Qui	2f#\	Qui	2dd\	Qui	ff	2F#/	.	2d\	.	2f#/	2dd\	f	2ff#\	.	2ddd\
.	.	.	.	.	8cc#X\J	.	.	.	.	.	.	.	.	.	.	.	.	.	.	.	.	.	.
4D\	.	.	4f#/ 4a	.	4dd\	.	.	.	.	.	.	.	.	.	.	.	.	.	.	.	.	.	.
4C#\	3	.	4e/ 4a	.	4ee\	.	4C#/	qui	4a\	qui	4ee\	qui	.	4A/	.	4e\	.	4a/	4ee\	.	4ee\	.	4eee\
!	!	!	!	!	!	!	!	!	!	!	!LO:LB:g=original	!	!	!	!	!	!	!	!	!	!	!	!
=68	=68	=68	=68	=68	=68	=68	=68	=68	=68	=68	=68	=68	=68	=68	=68	=68	=68	=68	=68	=68	=68	=68	=68
4D\	.	.	4f#/ 4a	.	2ff#\	.	2D/	pro-	2a\	p(ro)-	2ff#\	p(ro)-	.	2d\	.	2f#\	.	2a/	2ff#\	.	2ff#\	.	2fff#\
4d\	.	.	4f#/ 4a	.	.	.	.	.	.	.	.	.	.	.	.	.	.	.	.	.	.	.	.
!	!	!	!	!	!	!	!	!	!	!	!	!	!	!	!	!	!	!	!LO:TX:t=P:problem=fragment nieczytelny	!	!	!	!
4c#\	-	.	4e/ 4a	.	4ee\	.	4C#/	-pter	4a\	-pter	4ee\	-pter	.	4A/	.	4e\	.	4a/	4ryy	.	4ee\	.	4eee\
!	!	!	!	!	!	!	!	!	!	!	!	!	!	!	!	!	!	!	!LO:LB:g=original	!	!	!	!
=69	=69	=69	=69	=69	=69	=69	=69	=69	=69	=69	=69	=69	=69	=69	=69	=69	=69	=69	=69	=69	=69	=69	=69
4d\	.	.	8a/L	.	8ff#\L	.	4D\	nos	4a\	noſ	8ff#\L	noſ	.	4d\	.	4f#\	.	4a/	4ff#\	.	4ff#\	.	4fff#\
.	.	.	8f#/J	.	8dd\J	.	.	.	.	.	8dd\J	.	.	.	.	.	.	.	.	.	.	.	.
4G\	-	.	4g/	.	4ee\	.	4G\	ho-	4g\	ho-	4ee\	ho-	.	4A/	.	4e\	.	4g/	4ee\	.	4gg\	.	4eee\
4A\	7	.	8g/L	.	8ee\L	.	4A\	-mi-	4e\	-mi-	8ee\L	-mi-	.	4A/	.	4e\	.	4g/	4ee\	.	4ee\	.	8eee\L
*	*	*	*	*	*custos:dd	*	*	*	*	*	*	*	*	*	*	*	*	*	*	*	*	*	*
.	.	.	8e/J	.	8cc#\J	.	.	.	.	.	8cc#\J	.	.	.	.	.	.	.	.	.	.	.	8ccc#\J
!	!	!	!	!	!LO:LB:g=original	!	!	!	!	!	!	!	!	!	!	!	!	!	!	!	!	!	!
=70	=70	=70	=70	=70	=70	=70	=70	=70	=70	=70	=70	=70	=70	=70	=70	=70	=70	=70	=70	=70	=70	=70	=70
4D/	.	.	2.f#/	.	2.dd\	.	2D\	-neſ	2.f#\	-nes	2dd\	-nes	.	2F#/	.	2d\	.	2f#/	2dd\	.	2.ff#\	.	2.ddd\
8AA/L	.	.	.	.	.	.	.	.	.	.	.	.	.	.	.	.	.	.	.	.	.	.	.
8FF#/J	.	.	.	.	.	.	.	.	.	.	.	.	.	.	.	.	.	.	.	.	.	.	.
4DD/	.	.	.	.	.	.	4r	.	.	.	4r	.	.	4r	.	4r	.	4r	4r	.	.	.	.
!	!	!	!LO:LB:g=original	!	!	!	!	!	!	!	!	!	!	!	!	!	!	!	!	!	!	!	!
=71	=71	=71	=71	=71	=71	=71	=71	=71	=71	=71	=71	=71	=71	=71	=71	=71	=71	=71	=71	=71	=71	=71	=71
4D\	.	.	4f#/ 4a	.	8dd\L	.	4D/	et	4f#\	et	4dd\	et	.	2F#/	.	2d\	.	4f#/	4dd\	.	2ff#\	.	4ddd\
.	.	.	.	.	8cc#\	.	.	.	.	.	.	.	.	.	.	.	.	.	.	.	.	.	.
4D\	.	.	4f#/ 4a	.	8dd\	.	4D/	p(ro)-	4f#\	p(ro)-	4dd\	p(ro)-	.	.	.	.	.	4f#/	4dd\	.	.	.	4ddd\
.	.	.	.	.	8ff#\	.	.	.	.	.	.	.	.	.	.	.	.	.	.	.	.	.	.
!	!	!	!	!	!	!	!	!	!	!	!	!	!	!	!	!LO:TX:t=P:problem=custos ee	!	!	!	!	!	!	!
4C#\	-	.	4e/ 4a	.	8ee\	.	4C#/	-pter	4a\	-pter	4ee\	-pter	.	4A/	.	4e\	.	4a/	4ee\	.	4ee\	.	4eee\
.	.	.	.	.	8gg\J	.	.	.	.	.	.	.	.	.	.	.	.	.	.	.	.	.	.
!	!	!	!	!	!	!	!	!	!	!	!	!	!	!	!	!LO:LB:g=original	!	!	!	!	!	!	!
=72	=72	=72	=72	=72	=72	=72	=72	=72	=72	=72	=72	=72	=72	=72	=72	=72	=72	=72	=72	=72	=72	=72	=72
4D\	.	.	4f#/ 4a	.	8ff#\L	.	2D\	noſ-	2a\	noſ-	2ff#\	noſ-	.	2d\	.	2f#\	.	2a/	2ff#\	.	2ff#\	.	2fff#\
.	.	.	.	.	8dd\	.	.	.	.	.	.	.	.	.	.	.	.	.	.	.	.	.	.
4d\	.	.	4f#/ 4a	.	8ff#\	.	.	.	.	.	.	.	.	.	.	.	.	.	.	.	.	.	.
.	.	.	.	.	8dd\	.	.	.	.	.	.	.	.	.	.	.	.	.	.	.	.	.	.
4c#\	-	.	4e/ 4a	.	8ee\	.	4C#/	-tram	4a\	-tram	4ee\	-tram	.	4A/	.	4e\	.	4a/	4ee\	.	4ee\	.	4eee\
.	.	.	.	.	8aa\J	.	.	.	.	.	.	.	.	.	.	.	.	.	.	.	.	.	.
!LO:LB:g=original	!	!	!	!	!	!	!	!	!	!	!	!	!	!LO:LB:g=original	!	!	!	!	!	!	!	!	!
=73	=73	=73	=73	=73	=73	=73	=73	=73	=73	=73	=73	=73	=73	=73	=73	=73	=73	=73	=73	=73	=73	=73	=73
4d\	.	.	4f#/ 4a	.	8ff#\L	.	4D\	Sa-	4a\	Sa-	8ff#\L	Sa-	.	4d\	.	4f#\	.	4a/	4ff#\	.	4ff#\	.	4fff#\
.	.	.	.	.	8dd\J	.	.	.	.	.	8dd\J	.	.	.	.	.	.	.	.	.	.	.	.
4G\	-	.	4g/	.	4ee\	.	(4G\	-lu-	(4g\	-lu-	4ee\	-lu-	.	4r	.	4e\	.	4g/	4ee\	.	4gg\	.	4eee\
4A\	.	.	8g/L	.	8ee\L	.	4A\)	.	4e\)	.	8ee\L	.	.	4A/	.	4e\	.	4g/	4ee\	.	4ee\	.	4eee\
.	.	.	8e/J	.	8cc#\J	.	.	.	.	.	8cc#\J	.	.	.	.	.	.	.	.	.	.	.	.
=74	=74	=74	=74	=74	=74	=74	=74	=74	=74	=74	=74	=74	=74	=74	=74	=74	=74	=74	=74	=74	=74	=74	=74
!LO:TX:a:t=Pleno	!	!	!	!	!	!	!	!	!	!	!	!	!	!	!	!	!	!	!	!	!	!	!
4DD/ 4D	.	.	4f#/	.	2dd\	.	2D\	-tem	2f#\	-tem	2dd\	-tem	.	2F#/	.	2d\	.	2f#/	2dd\	.	2ff#\	.	2ddd\
4DD/ 4D	.	.	4f#/	.	.	.	.	.	.	.	.	.	.	.	.	.	.	.	.	.	.	.	.
4DD/ 4D	.	.	4a/	.	4aa\	.	4D\	deſ-	4f#\	deſ-	4dd\	deſ-	.	4r	.	4r	.	4ff#\	4ff#\	.	4r	.	4r
!	!	!	!	!	!	!	!LO:LB:g=original	!	!	!	!	!	!	!	!	!	!	!	!	!	!LO:LB:g=original	!	!
=75	=75	=75	=75	=75	=75	=75	=75	=75	=75	=75	=75	=75	=75	=75	=75	=75	=75	=75	=75	=75	=75	=75	=75
2.D/	.	.	4d/	.	4dd\	.	2.D\	-cen-	2f#\	-cen-	2.dd\	cen-	.	2f#\	.	2.a\	.	2ff#\	2.aa\	.	2ff#\	.	4ddd\
.	.	.	8e/L	.	8ee\L	.	.	.	.	.	.	.	.	.	.	.	.	.	.	.	.	.	8eee\L
.	.	.	8f#/J	.	8ff#\J	.	.	.	.	.	.	.	.	.	.	.	.	.	.	.	.	.	8fff#\
.	.	.	8c#/L	.	8cc#\L	.	.	.	4e\	.	.	.	.	4e\	.	.	.	4ee\	.	.	4ee\	.	8ccc#\
.	.	.	8A/J	.	8a\J	.	.	.	.	.	.	.	.	.	.	.	.	.	.	.	.	.	8aa\J
!	!	!	!	!	!	!	!	!	!	!	!	!	!	!	!	!	!	!LO:LB:g=original	!	!	!	!	!
=76	=76	=76	=76	=76	=76	=76	=76	=76	=76	=76	=76	=76	=76	=76	=76	=76	=76	=76	=76	=76	=76	=76	=76
2.D/	.	.	4d/	.	4dd\	.	2.D\	.	2f#\	-dit	2.dd\	-dit	.	2f#\	.	2.a\	.	2ff#\	2.aa\	.	2ff#\	.	4ddd\
.	.	.	8e/L	.	8ee\L	.	.	.	.	.	.	.	.	.	.	.	.	.	.	.	.	.	8eee\L
.	.	.	8f#/J	.	8ff#\	.	.	.	.	.	.	.	.	.	.	.	.	.	.	.	.	.	8fff#\
.	.	.	8c#/L	.	8cc#\	.	.	.	4e\	de	.	.	.	4e\	.	.	.	4ee\	.	.	4ee\	.	8ccc#\
.	.	.	8A/J	.	8a\J	.	.	.	.	.	.	.	.	.	.	.	.	.	.	.	.	.	8aa\J
!	!	!	!	!	!	!	!	!	!LO:LB:g=original	!	!	!	!	!	!	!	!	!	!	!	!	!	!
=77	=77	=77	=77	=77	=77	=77	=77	=77	=77	=77	=77	=77	=77	=77	=77	=77	=77	=77	=77	=77	=77	=77	=77
2.D/	.	.	4a/	.	4aa\	.	2D\	-dit	2f#\	Cae-	2.dd\	de	.	2f#\	.	2.a\	.	2ff#\	2.aa\	.	2ff#\	.	4aa\
.	.	.	8f#/L	.	8ff#\L	.	.	.	.	.	.	.	.	.	.	.	.	.	.	.	.	.	8fff#\L
.	.	.	8d/	.	8dd\	.	.	.	.	.	.	.	.	.	.	.	.	.	.	.	.	.	8ddd\
.	.	.	8c#/	.	8cc#\	.	4D\	de	4e\	.	.	.	.	4e\	.	.	.	4ee\	.	.	4ee\	.	8ccc#\
.	.	.	8A/J	.	8a\J	.	.	.	.	.	.	.	.	.	.	.	.	.	.	.	.	.	8aa\J
=78	=78	=78	=78	=78	=78	=78	=78	=78	=78	=78	=78	=78	=78	=78	=78	=78	=78	=78	=78	=78	=78	=78	=78
2.D/	.	.	4d/	.	4dd\	.	2.D\	Cae-	2f#\	.	2.dd\	Cae-	.	2f#\	.	2.a\	.	2ff#\	2.aa\	.	2ff#\	.	4ddd\
.	.	.	8e/L	.	8ee\L	.	.	.	.	.	.	.	.	.	.	.	.	.	.	.	.	.	8eee\L
.	.	.	8f#/	.	8ff#\	.	.	.	.	.	.	.	.	.	.	.	.	.	.	.	.	.	8fff#\
.	.	.	8c#/	.	8cc#\	.	.	.	4e\	.	.	.	.	4e\	.	.	.	4ee\	.	.	4ee\	.	8ccc#\
.	.	.	8A/J	.	8a\J	.	.	.	.	.	.	.	.	.	.	.	.	.	.	.	.	.	8aa\J
=79	=79	=79	=79	=79	=79	=79	=79	=79	=79	=79	=79	=79	=79	=79	=79	=79	=79	=79	=79	=79	=79	=79	=79
4D\	.	.	4d/	.	4dd\	.	4D\	-liſ	4f#\	-liſ	4dd\	-liſ	.	4f#\	.	4a\	.	4ff#\	4aa\	.	4ff#\	.	4ddd\
8F#\L	.	.	4a\ 4ff#	.	4dd\ 4ddd	.	4r	.	4r	.	4r	.	.	4d\	.	4f#\	.	4dd\	4ff#\	.	4ff#\	.	4ddd\
8D\	.	.	.	.	.	.	.	.	.	.	.	.	.	.	.	.	.	.	.	.	.	.	.
8A\	.	.	4dd\ 4ff#	.	4dd\ 4ddd	.	4r	.	4r	.	4r	.	.	4d\	.	4f#\	.	4dd\	4ff#\	.	4ff#\	.	4ddd\
8F#\J	.	.	.	.	.	.	.	.	.	.	.	.	.	.	.	.	.	.	.	.	.	.	.
=80	=80	=80	=80	=80	=80	=80	=80	=80	=80	=80	=80	=80	=80	=80	=80	=80	=80	=80	=80	=80	=80	=80	=80
!	!	!	!	!	!	!	!LO:TX:a:t=1	!	!	!	!	!	!	!	!	!	!	!	!	!	!	!	!
4DD/ 4D	.	.	4dd\ 4ff#	.	4dd\ 4ddd	.	2.r	.	2.r	.	2.r	.	.	4d\	.	4f#\	.	4dd\	4ff#\	.	4ff#\	.	4ddd\
*	*	*	*	*	*	*	*	*	*	*	*	*	*	*	*	*	*	*	*	*	*	*	*X8va
4r	.	.	4r	.	4r	.	.	.	.	.	.	.	.	4r	.	4r	.	4r	4r	.	4r	.	4r
4r	.	.	4r	.	4r	.	.	.	.	.	.	.	.	4r	.	4r	.	4r	4r	.	4r	.	4r
==	==	==	==	==	==	==	==	==	==	==	==	==	==	==	==	==	==	==	==	==	==	==	==
*-	*-	*-	*-	*-	*-	*-	*-	*-	*-	*-	*-	*-	*-	*-	*-	*-	*-	*-	*-	*-	*-	*-	*-
!!!system-decoration: [(s1,s2,s3,s4)][(s5,s6)][(s7,s8,s9)][(s10,s11)]s12
!!!ENC: Andrzej Kubiczek
!!!END: 2020-10-03
!!!ENC: Jan Barakat
!!!END: 2022-02-04
